!!!COM:	Bach, Johann Sebastian
!!!CDT:	1685/02/21/-1750/07/28/
!!!OTL@@DE:	Es ist genug! so nimm Herr
!!!SCT:	BWV 60/5
!!!PC#:	216
!!!AGN:	chorale
**kern	**kern	**kern	**kern
*ICvox	*ICvox	*ICvox	*ICvox
*Ibass	*Itenor	*Ialto	*Isoprn
*I"Bass	*I"Tenor	*I"Alto	*I"Soprano
*clefF4	*clefGv2	*clefG2	*clefG2
*k[f#c#g#]	*k[f#c#g#]	*k[f#c#g#]	*k[f#c#g#]
*A:	*A:	*A:	*A:
*M4/4	*M4/4	*M4/4	*M4/4
*met(c)	*met(c)	*met(c)	*met(c)
*MM100	*MM100	*MM100	*MM100
=1-	=1-	=1-	=1-
2A	2c#	2e	2a
4G#	4B	4e	4b
4A#	4f#	8dL	4cc#
.	.	8c#J	.
=2	=2	=2	=2
2B#;	2f#;	2g#;	2dd#;
4r	4ry	4ry	4r
4G#	4B#	4g#	4dd#
=3	=3	=3	=3
8c#L	8c#L	4.g#	4ee
16BnXL	8d#J	.	.
16AJJ	.	.	.
8G#L	4e	.	4b
8F#J	.	8a	.
8EL	4e	8g#L	4b
8DJ	.	8f#J	.
8C#L	4e	8g#L	4ddnX
8BBJ	.	8eJ	.
=4	=4	=4	=4
2.AA;	2.e;	2.a;	2.cc#;
4E	4e	4g#	4b
=5	=5	=5	=5
4A	8eL	8aL	8cc#L
.	8f#J	8bJ	8dd#J
4A#	4g	4cc#	4ee
4B	4f#	4b	4ee
4BB	4B	16anXLL	4dd#
.	.	16g#XJ	.
.	.	8aJ	.
=6	=6	=6	=6
2E;	2B;	2g#;	2ee;
2A	2c#	2e	2a
=7	=7	=7	=7
4G#	4B	4e	4b
4G	4A	4e	4cc#
2F#;	2A;	2f#;	2dd#;
=8	=8	=8	=8
4r	4ry	4ry	4r
4BB	4B	8f#L	4dd#
.	.	16g#L	.
.	.	16aJJ	.
4.E	4B	8g#L	4ee
.	.	8f#J	.
.	4e	8g#L	4b
8F#	.	8aJ	.
=9	=9	=9	=9
4G#	4e	4b	4b
8F#L	4e	4g#	4ddnX
8EJ	.	.	.
2A;	2e;	2a;	2cc#;
=10	=10	=10	=10
4r	4ry	4ry	4r
4A	4d#	4f#	4b
8GL	8eL	8gL	8cc#L
8F#J	8f#J	8aJ	8dd#J
4E	4gnX	4b	4ee
=11	=11	=11	=11
4B	4f#	8bL	4ee
.	.	16aL	.
.	.	16g#XJJ	.
4BB	4B	8aL	4dd#
.	.	8f#J	.
2E;	2B;	2g#;	2ee;
=12	=12	=12	=12
4r	4ry	4ry	4r
8EL	4e	8g#L	4b
8F#J	.	8aJ	.
8G#L	4e	8bL	4b
8F#J	.	8aJ	.
8G#L	4e	8bL	4b
8EJ	.	8g#J	.
=13	=13	=13	=13
8AL	4e	4a	4cc#
8BJ	.	.	.
8AL	4e	4b	4b
8G#J	.	.	.
8F#L	4f#	4a	4dd
8G#J	.	.	.
4A	4e	4a	4cc#
=14	=14	=14	=14
2E	4e	8aL	2cc#
.	.	8g#	.
.	4d#	8a	.
.	.	8f#J	.
2E;	2e;	2g#;	2b;
=15	=15	=15	=15
4r	4ry	4ry	4r
4A	4d#	4f#	4b
4G#	4e	4B	4b
4G	4f	4b	4b
=16	=16	=16	=16
4F#	4e	4a#	4cc#
4F	4dnX	4a	4b
4E	4e	4g#	4dd
4D#	4f#	4a	4cc#
=17	=17	=17	=17
2E	8eL	8aL	2cc#
.	8AJ	8f#J	.
.	4F#	4d#	.
2E;	2G#;	2e;	2b;
=18	=18	=18	=18
4r	4ry	4ry	4r
4G#	4B	4e	4ee
8AL	4A	4e	4cc#
8C#J	.	.	.
8D#L	8AL	8f#L	4b
8E#J	8G#J	8g#J	.
=19	=19	=19	=19
2F#;	2c#;	2f#;	2a;
4r	4ry	4ry	4r
4G#	4e	4b	4ee
=20	=20	=20	=20
4A	4e	4a	4cc#
4E	16dLL	4g#	4b
.	16c#J	.	.
.	8dJ	.	.
2AA;	2c#;	2e;	2a;
==	==	==	==
*-	*-	*-	*-
!!!hum2abc: -Q ''
!!!title: @{PC#}. @{OTL@@DE}
!!!YOR1: 371 vierstimmige Choralges&auml;nge von Johann Sebastian Bach, 
!!!YOR2: 4th ed. by Alfred D&ouml;rffel (Leipzig: Breitkopf und H&auml;rtel, 
!!!YOR2: c.1875). 178 pp. Plate "V.A.10".  reprint: J.S. Bach, 371 Four-Part 
!!!YOR4: Chorales (New York: Associated Music Publishers, Inc., c.1940).
!!!SMS: B&H, 4th ed, Alfred D&ouml;rffel, c.1875, plate V.A.10
!!!EED:  Craig Stuart Sapp
!!!EEV:  2009/05/22
